apps/www/public/images/logos/publicity/archive/betashares.svg

<svg width="171" height="36" viewBox="0 0 171 36" fill="none" xmlns="http://www.w3.org/2000/svg">
<g clip-path="url(#clip0_117_159)">
<path fill-rule="evenodd" clip-rule="evenodd" d="M34.8532 18.0184C34.8532 27.4482 27.2089 35.0925 17.7791 35.0925C8.3494 35.0925 0.705078 27.4482 0.705078 18.0184C0.705078 8.58867 8.3494 0.944351 17.7791 0.944351C27.2089 0.944351 34.8532 8.58867 34.8532 18.0184ZM13.942 11.1845C13.867 11.1411 13.7723 11.1963 13.7723 11.2831V24.7656C13.7724 24.7854 13.7776 24.8049 13.7875 24.8221C13.7974 24.8393 13.8117 24.8536 13.8288 24.8636C13.846 24.8736 13.8655 24.8789 13.8853 24.879C13.9052 24.8791 13.9247 24.874 13.942 24.8642L25.6179 18.123C25.6928 18.0796 25.6928 17.9691 25.6179 17.9257L13.942 11.1845ZM15.9793 10.1411C15.8748 10.1411 15.8373 10.2812 15.928 10.3344H15.9261L25.2924 15.7424C25.3851 15.7957 25.4877 15.6931 25.4345 15.6024L22.3853 10.2969C22.3301 10.2003 22.2275 10.1411 22.1171 10.1411H15.9793ZM11.8494 23.454C11.9026 23.5467 12.0426 23.5093 12.0426 23.4028V12.6282C12.0426 12.5217 11.9026 12.4862 11.8494 12.5769L8.81204 17.8606C8.75682 17.9573 8.75682 18.0756 8.81204 18.1703L11.8494 23.454ZM25.2826 20.3122C25.3753 20.2589 25.4778 20.3615 25.4246 20.4522L25.4226 20.4542L22.3833 25.7379C22.3281 25.8346 22.2255 25.8938 22.1151 25.8938H16.001C15.8965 25.8938 15.859 25.7537 15.9497 25.7005L25.2826 20.3122ZM28.523 17.5017C28.7065 17.8212 28.7065 18.2117 28.523 18.5312L23.5943 27.1028C23.4109 27.4242 23.0677 27.6215 22.6989 27.6215H12.8493C12.6677 27.6211 12.4893 27.573 12.3322 27.482C12.175 27.3909 12.0445 27.2602 11.9539 27.1028L7.02515 18.5312C6.84173 18.2117 6.84173 17.8212 7.02515 17.5017L11.9539 8.93014C12.1373 8.60866 12.4805 8.41143 12.8493 8.41143H22.6989C22.8805 8.41176 23.0589 8.45986 23.216 8.55091C23.3732 8.64195 23.5037 8.77274 23.5943 8.93014L28.523 17.5017Z" fill="#A0A0A0"/>
<path fill-rule="evenodd" clip-rule="evenodd" d="M44.1165 21.1129C44.1165 18.8566 45.7831 17.0638 48.1557 17.0638C50.5284 17.0638 52.195 18.8566 52.195 21.1129C52.195 23.3692 50.5008 25.1896 48.1557 25.1896C45.8107 25.1896 44.1165 23.3692 44.1165 21.1129ZM48.8618 27.9883C52.7038 27.9883 55.3309 24.945 55.3309 21.1129C55.3309 17.2807 52.7038 14.2651 48.8618 14.2651C46.998 14.2651 45.1618 15.1073 44.2013 16.6023V8.64016H41.0654V27.6609H44.0317V25.3237C44.935 27.0356 46.9132 27.9863 48.8618 27.9863V27.9883ZM59.4608 19.5627C59.9421 17.8231 61.2398 16.7364 63.1609 16.7364C65.0819 16.7364 66.4388 17.8231 66.8904 19.5627H59.4608ZM63.3877 28.0672C66.1567 28.0672 68.5866 26.8996 69.8015 24.2902V24.235C68.9535 24.2902 67.6833 23.7183 67.1745 23.0398L67.1468 23.0674C66.638 24.4263 65.283 25.4322 63.4468 25.4322C61.2438 25.4322 59.5772 24.0457 59.2932 21.7913H69.8863C70.3952 17.689 67.6833 14.1823 63.1904 14.1823C59.2064 14.1823 56.3249 17.2807 56.3249 21.1109C56.3249 24.9411 59.2636 28.0672 63.3877 28.0672ZM70.553 17.2807H72.3892V27.6609H75.5547V17.2807H77.5605V14.5629H75.5547V10.3758H72.3892V14.5629H70.553V17.2807ZM81.2704 21.1129C81.2704 18.8566 82.937 17.0638 85.3096 17.0638C87.6823 17.0638 89.3784 18.8842 89.3784 21.1129C89.3784 23.3416 87.7119 25.1896 85.3096 25.1896C82.9074 25.1896 81.2704 23.3692 81.2704 21.1129ZM84.6331 27.9606C86.4693 27.9606 88.4751 27.0633 89.3784 25.3789V27.6609H92.4296V14.5629H89.3784V16.8449C88.4751 15.1605 86.4693 14.2631 84.6331 14.2631C80.7635 14.2631 78.1344 17.3064 78.1344 21.1109C78.1344 24.9154 80.7615 27.9587 84.6331 27.9587V27.9606ZM99.6106 28.0691C102.719 28.0691 104.837 26.1678 104.837 23.6946C104.837 21.2214 102.859 20.1346 100.768 19.7264L99.4962 19.4818C98.3661 19.2372 97.518 18.9375 97.518 18.0696C97.518 17.3083 98.2517 16.6023 99.4114 16.6023C100.684 16.6023 101.672 17.2275 101.981 18.5588H102.009C102.545 17.9336 103.818 17.4444 104.664 17.5529L104.691 17.5253C104.182 15.6773 102.346 14.1566 99.4923 14.1566C96.6384 14.1566 94.463 16.0047 94.463 18.2333C94.463 20.2451 95.8199 21.4403 98.5594 22.0103L99.8867 22.2824C100.932 22.527 101.751 22.8524 101.751 23.805C101.751 24.7577 101.017 25.517 99.6323 25.517C97.9381 25.517 96.7232 24.4303 96.4964 23.0714L96.4688 23.0437C95.9323 23.669 94.6602 24.1305 93.8141 24.022L93.7865 24.0496C94.2953 26.4952 96.5556 28.0711 99.6067 28.0711L99.6106 28.0691ZM106.362 27.6609H109.498V20.2155C109.498 18.3142 110.855 17.0638 112.718 17.0638C114.582 17.0638 115.77 18.259 115.77 20.107V27.6609H118.905V18.9927C118.905 16.2216 116.702 14.2375 113.791 14.2375C112.068 14.2375 110.373 14.9988 109.498 16.547V8.64016H106.362V27.6609ZM123.544 21.1129C123.544 18.8566 125.211 17.0638 127.584 17.0638C129.956 17.0638 131.652 18.8842 131.652 21.1129C131.652 23.3416 129.986 25.1896 127.584 25.1896C125.181 25.1896 123.544 23.3692 123.544 21.1129ZM126.907 27.9606C128.743 27.9606 130.749 27.0633 131.652 25.3789V27.6609H134.703V14.5629H131.652V16.8449C130.749 15.1605 128.743 14.2631 126.907 14.2631C123.037 14.2631 120.408 17.3064 120.408 21.1109C120.408 24.9154 123.035 27.9587 126.907 27.9587V27.9606ZM137.167 18.1505V27.6609H140.303V21.8466C140.303 19.5646 141.009 17.4444 143.297 17.4444C143.975 17.4444 144.569 17.6081 144.878 17.8527H144.906C144.934 17.0105 145.669 15.7877 146.403 15.3262V15.271C145.894 14.701 144.991 14.3479 143.776 14.3479C142.052 14.3479 140.837 15.3814 140.216 16.7936V14.5649H137.165V18.1525L137.167 18.1505ZM148.665 19.5627C149.145 17.8231 150.444 16.7364 152.365 16.7364C154.286 16.7364 155.643 17.8231 156.095 19.5627H148.665ZM152.592 28.0672C155.361 28.0672 157.791 26.8996 159.006 24.2902V24.235C158.158 24.2902 156.888 23.7183 156.379 23.0398L156.351 23.0674C155.842 24.4263 154.487 25.4322 152.651 25.4322C150.448 25.4322 148.782 24.0457 148.498 21.7913H159.091C159.6 17.689 156.888 14.1823 152.395 14.1823C148.411 14.1823 145.529 17.2807 145.529 21.1109C145.529 24.9411 148.468 28.0672 152.592 28.0672ZM165.708 28.0691C168.816 28.0691 170.934 26.1678 170.934 23.6946C170.934 21.2214 168.956 20.1346 166.866 19.7264L165.593 19.4818C164.463 19.2372 163.615 18.9375 163.615 18.0696C163.615 17.3083 164.349 16.6023 165.509 16.6023C166.781 16.6023 167.769 17.2275 168.078 18.5588H168.106C168.643 17.9336 169.915 17.4444 170.761 17.5529L170.788 17.5253C170.28 15.6773 168.443 14.1566 165.589 14.1566C162.736 14.1566 160.56 16.0047 160.56 18.2333C160.56 20.2451 161.917 21.4403 164.657 22.0103L165.984 22.2824C167.029 22.527 167.848 22.8524 167.848 23.805C167.848 24.7577 167.114 25.517 165.729 25.517C164.035 25.517 162.82 24.4303 162.594 23.0714L162.566 23.0437C162.029 23.669 160.757 24.1305 159.911 24.022L159.884 24.0496C160.392 26.4952 162.653 28.0711 165.704 28.0711L165.708 28.0691Z" fill="#B4B4B4"/>
</g>
<defs>
<clipPath id="clip0_117_159">
<rect width="170.384" height="34.4676" fill="white" transform="translate(0.610352 0.780807)"/>
</clipPath>
</defs>
</svg>

<svg xmlns="http://www.w3.org/2000/svg" width="171" height="36" fill="none" viewBox="0 0 171 36"><g fill-rule="evenodd" clip-path="url(#a)" clip-rule="evenodd"><path fill="#a0a0a0" d="M34.853 18.018c0 9.43-7.644 17.075-17.074 17.075S.705 27.448.705 18.018 8.35.944 17.78.944 34.853 8.59 34.853 18.018m-20.911-6.834a.114.114 0 0 0-.17.1v13.482a.114.114 0 0 0 .113.113q.03 0 .057-.015l11.676-6.741a.115.115 0 0 0 0-.197zm2.037-1.043c-.104 0-.142.14-.051.193h-.002l9.366 5.408c.093.054.196-.049.142-.14l-3.049-5.305a.31.31 0 0 0-.268-.156zm-4.13 13.313c.054.093.194.055.194-.051V12.628c0-.106-.14-.142-.194-.051L8.812 17.86a.31.31 0 0 0 0 .31zm13.434-3.142c.092-.053.195.05.142.14l-.002.002-3.04 5.284a.31.31 0 0 1-.268.156h-6.114c-.105 0-.142-.14-.051-.193zm3.24-2.81c.183.32.183.71 0 1.03l-4.929 8.57a1.03 1.03 0 0 1-.895.52h-9.85a1.04 1.04 0 0 1-.895-.52l-4.929-8.57a1.03 1.03 0 0 1 0-1.03l4.929-8.572c.183-.321.526-.519.895-.519h9.85a1.03 1.03 0 0 1 .895.52z"/><path fill="#b4b4b4" d="M44.117 21.113c0-2.256 1.666-4.05 4.039-4.05s4.039 1.794 4.039 4.05-1.694 4.077-4.04 4.077c-2.344 0-4.038-1.82-4.038-4.077m4.745 6.875c3.842 0 6.469-3.043 6.469-6.875s-2.627-6.848-6.47-6.848c-1.863 0-3.7.842-4.66 2.337V8.64h-3.136v19.02h2.967v-2.336c.903 1.712 2.881 2.662 4.83 2.662zm10.599-8.425c.481-1.74 1.779-2.827 3.7-2.827 1.92 0 3.278 1.087 3.73 2.827zm3.927 8.504c2.769 0 5.199-1.167 6.414-3.777v-.055c-.849.055-2.119-.517-2.628-1.195l-.027.027c-.509 1.36-1.864 2.365-3.7 2.365-2.203 0-3.87-1.386-4.154-3.64h10.593c.51-4.103-2.203-7.61-6.696-7.61-3.984 0-6.865 3.099-6.865 6.929s2.939 6.956 7.063 6.956m7.165-10.786h1.836v10.38h3.166V17.28h2.005v-2.718h-2.005v-4.187h-3.166v4.187h-1.836zm10.717 3.832c0-2.256 1.667-4.05 4.04-4.05 2.372 0 4.068 1.821 4.068 4.05s-1.666 4.077-4.068 4.077c-2.403 0-4.04-1.82-4.04-4.077m3.363 6.848c1.836 0 3.842-.898 4.745-2.582v2.282h3.052V14.563h-3.052v2.282c-.903-1.684-2.909-2.582-4.745-2.582-3.87 0-6.499 3.043-6.499 6.848s2.627 6.848 6.5 6.848zm14.978.108c3.108 0 5.226-1.901 5.226-4.374 0-2.474-1.978-3.56-4.069-3.969l-1.272-.244c-1.13-.245-1.978-.544-1.978-1.412 0-.762.734-1.468 1.893-1.468 1.273 0 2.261.625 2.57 1.957h.028c.536-.625 1.809-1.115 2.655-1.006l.027-.028c-.509-1.848-2.345-3.368-5.199-3.368s-5.029 1.848-5.029 4.076c0 2.012 1.357 3.207 4.096 3.777l1.328.272c1.045.245 1.864.57 1.864 1.523s-.734 1.712-2.119 1.712c-1.694 0-2.909-1.087-3.136-2.446l-.027-.027c-.537.625-1.809 1.087-2.655.978l-.027.028c.508 2.445 2.769 4.021 5.82 4.021zm6.751-.408h3.136v-7.446c0-1.9 1.357-3.151 3.22-3.151s3.052 1.195 3.052 3.043v7.554h3.135v-8.668c0-2.771-2.203-4.755-5.114-4.755-1.723 0-3.418.76-4.293 2.309V8.64h-3.136zm17.182-6.548c0-2.256 1.667-4.05 4.04-4.05 2.372 0 4.068 1.821 4.068 4.05s-1.666 4.077-4.068 4.077c-2.403 0-4.04-1.82-4.04-4.077m3.363 6.848c1.836 0 3.842-.898 4.745-2.582v2.282h3.051V14.563h-3.051v2.282c-.903-1.684-2.909-2.582-4.745-2.582-3.87 0-6.499 3.043-6.499 6.848s2.627 6.848 6.499 6.848zm10.26-9.81v9.51h3.136v-5.814c0-2.282.706-4.403 2.994-4.403.678 0 1.272.164 1.581.409h.028c.028-.843.763-2.065 1.497-2.527v-.055c-.509-.57-1.412-.923-2.627-.923-1.724 0-2.939 1.033-3.56 2.446v-2.23h-3.051v3.589zm11.498 1.412c.48-1.74 1.779-2.827 3.7-2.827s3.278 1.087 3.73 2.827zm3.927 8.504c2.769 0 5.199-1.167 6.414-3.777v-.055c-.848.055-2.118-.517-2.627-1.195l-.028.027c-.509 1.36-1.864 2.365-3.7 2.365-2.203 0-3.869-1.386-4.153-3.64h10.593c.509-4.103-2.203-7.61-6.696-7.61-3.984 0-6.866 3.099-6.866 6.929s2.939 6.956 7.063 6.956m13.116.002c3.108 0 5.226-1.901 5.226-4.374 0-2.474-1.978-3.56-4.068-3.969l-1.273-.244c-1.13-.245-1.978-.544-1.978-1.412 0-.762.734-1.468 1.894-1.468 1.272 0 2.26.625 2.569 1.957h.028c.537-.625 1.809-1.115 2.655-1.006l.027-.028c-.508-1.848-2.345-3.368-5.199-3.368s-5.029 1.848-5.029 4.076c0 2.012 1.357 3.207 4.097 3.777l1.327.272c1.045.245 1.864.57 1.864 1.523s-.734 1.712-2.119 1.712c-1.694 0-2.909-1.087-3.135-2.446l-.028-.027c-.537.625-1.809 1.087-2.655.978l-.027.028c.508 2.445 2.769 4.021 5.82 4.021z"/></g><defs><clipPath id="a"><path fill="#fff" d="M.61.78h170.384V35.25H.61z"/></clipPath></defs></svg>
